X:1
T:3.   Gymnopédie
T:3me Gymnopèdie
T:Erik Satie
T:.
%%score { ( 1 3 4 ) | 2 }
L:1/8
Q:1/4=63
M:3/4
K:C
V:1 treble nm="Piano" snm="Pno."
V:3 treble 
V:4 treble 
V:2 bass 
V:1
"^Lent et grave" z6 | z6 | z6 | z6 |!p!!<(! (a6 | g2 f2 e2!<)! | d2!>(! e2 f2 | e2 d2 c2!>)! | %8
 e6) |!<(! (g4 g2!<)! |!>(! d6-!>)! | d6 | d6) | z2 (c2!<(! f2 | g4 a2!<)! | d2 e2 f2 | %16
!>(! B2 A2 G2 | A6!>)! | D6- | D6) | (e6!pp! |!<(! f2 g2 f2!<)! |!>(! e2 d2 e2- | e6- | e2 d2 c2 | %25
 B2 c2 B2!>)! | A6) | z6!pp! | z6 | z6 | (a6!p! | g2!<(! f2 e2 | d2 e2 f2 | e2 d2!<)! c2 | e6 | %35
 g4 g2 |!>(! c2 B2 A2 | B4!>)! c2 | d6 | e6) | z6 | z6 | (g4 a2 | d2 e2 f2 | B2 A2 G2 |!>(! A6 | %46
 D6- | D6) | (e6!pp! | f2 g2 f2 | e2 d2!>)! e2- | e6- |!>(! e2 d2 c2 | B2 c2 B2 | A6)!>)! | %55
!pp!!>(! z6 | z6 | z6!>)! |!ppp! [CEAc]6- | [CEAc]6 |] %60
V:2
!p! A,,6 | D,,6 | A,,6 | D,,6 | A,,6 | C,6 | G,,6 | D,,6 | A,,6 | E,,6 | G,,6 | D,,6 | G,,6 | %13
 D,,6 | G,,,6 | G,,,6 | G,,,6 | D,,6 | G,,,6 | G,,,6 | C,,6 | E,,6 | C,,6 | E,,6 | C,,6 | E,,6 | %26
 A,,6 | D,,6 | A,,6 | D,,6 | A,,6 | C,6 | G,,6 | D,,6 | A,,6 | E,,6 | E,,6 | E,,6 | D,,6 | D,,6 | %40
 D,,6 | D,,6 | G,,,6 | G,,,6 | G,,,6 | D,,6 | G,,,6 | G,,,6 | C,,6 | E,,6 | C,,6 | E,,6 | C,,6 | %53
 E,,6 | A,,6 | D,,6 | A,,6 | D,,6 | [A,,,E,,A,,]6- | [A,,,E,,A,,]6 |] %60
V:3
[I:staff +1] z2[I:staff -1] [CEA]4 |[I:staff +1] z2[I:staff -1] [B,EG]4 | %2
[I:staff +1] z2[I:staff -1] [CEA]4 |[I:staff +1] z2[I:staff -1] [B,EG]4 | %4
[I:staff +1] z2[I:staff -1] [CEA]4 |[I:staff +1] z2[I:staff -1] [CEA]4 | %6
[I:staff +1] z2[I:staff -1] [_B,DG]4 |[I:staff +1] z2[I:staff -1] [A,DF]4 | %8
[I:staff +1] z2[I:staff -1] [A,CE]4 |[I:staff +1] z2[I:staff -1] [G,=B,E]4 | %10
[I:staff +1] z2 [D,G,B,]4 | z2[I:staff -1] [A,CF]4 |[I:staff +1] z2 [D,G,B,]4 | %13
 z2[I:staff -1] [A,CF]4 |[I:staff +1] z2[I:staff -1] [B,EG]4 |[I:staff +1] z2[I:staff -1] [A,CF]4 | %16
[I:staff +1] z2[I:staff -1] [A,CE]4 |[I:staff +1] z2[I:staff -1] [A,CF]4 | %18
[I:staff +1] z2[I:staff -1] [A,CF]4 |[I:staff +1] z2[I:staff -1] [B,EG]4 | %20
[I:staff +1] z2[I:staff -1] [CEA]4 |[I:staff +1] z2[I:staff -1] [B,EG]4 | %22
[I:staff +1] z2[I:staff -1] [CEA]4 |[I:staff +1] z2[I:staff -1] [B,EG]4 | %24
[I:staff +1] z2[I:staff -1] [CEA]4 |[I:staff +1] z2[I:staff -1] [B,EG]4 | %26
[I:staff +1] z2[I:staff -1] [A,CF]4 |[I:staff +1] z2[I:staff -1] [B,EG]4 | %28
[I:staff +1] z2[I:staff -1] [CEA]4 |[I:staff +1] z2[I:staff -1] [B,EG]4 | %30
[I:staff +1] z2[I:staff -1] [CEA]4 |[I:staff +1] z2[I:staff -1] [CEA]4 | %32
[I:staff +1] z2[I:staff -1] [_B,DG]4 |[I:staff +1] z2[I:staff -1] [A,DF]4 | %34
[I:staff +1] z2[I:staff -1] [A,CE]4 |[I:staff +1] z2[I:staff -1] [G,=B,E]4 | %36
[I:staff +1] z2[I:staff -1] [A,CF]4 |[I:staff +1] z2[I:staff -1] [G,B,E]4 | %38
[I:staff +1] z2[I:staff -1] [A,CF]4 |[I:staff +1] z2[I:staff -1] [CEA]4 | %40
[I:staff +1] z2[I:staff -1] [A,CE]4 |[I:staff +1] z2[I:staff -1] [A,CF]4 | %42
[I:staff +1] z2[I:staff -1] [B,EG]4 |[I:staff +1] z2[I:staff -1] [A,CF]4 | %44
[I:staff +1] z2[I:staff -1] [A,CE]4 |[I:staff +1] z2[I:staff -1] [A,CF]4 | %46
[I:staff +1] z2[I:staff -1] [A,CF]4 |[I:staff +1] z2[I:staff -1] [B,EG]4 | %48
[I:staff +1] z2[I:staff -1] [CEA]4 |[I:staff +1] z2[I:staff -1] [B,EG]4 | %50
[I:staff +1] z2[I:staff -1] [CEA]4 |[I:staff +1] z2[I:staff -1] [B,EG]4 | %52
[I:staff +1] z2[I:staff -1] [CEA]4 |[I:staff +1] z2[I:staff -1] [B,EG]4 | %54
[I:staff +1] z2[I:staff -1] [A,CF]4 |[I:staff +1] z2[I:staff -1] [B,EG]4 | %56
[I:staff +1] z2[I:staff -1] [CEA]4 |[I:staff +1] z2[I:staff -1] [B,EG]4 | x6 | x6 |] %60
V:4
 x6 | x6 | x6 | x6 | x6 | x6 | x6 | x6 | x6 | x6 | z2 [FA]4 | x6 | z2 [FA]4 | x6 | x6 | x6 | x6 | %17
 x6 | x6 | x6 | x6 | x6 | x6 | x6 | x6 | x6 | x6 | x6 | x6 | x6 | x6 | x6 | x6 | x6 | x6 | x6 | %36
 x6 | x6 | x6 | x6 | x6 | x6 | x6 | x6 | x6 | x6 | x6 | x6 | x6 | x6 | x6 | x6 | x6 | x6 | x6 | %55
 x6 | x6 | x6 | x6 | x6 |] %60

